X: 20775
T: Johnny Leary's
R: polka
M: 2/4
K: Dmajor
d>B|AF F/G/F/E/|DF F2|AF AF|E2 d>B|
AF F/G/F/E/|DF F>A|BA/B/ Bc|d2 d>B|
AF F/G/F/E/|DF F2|AF AF|E3 F|
GE EE/D/|CD EF|AF/A/ Bc|d2 d>A||
dA/d/ fe|cB/c/ ec|BA Bc|BA FA|
dA/d/ fe|cB/c/ ec|BA Bc|d2 d>A|
dA/d/ fe|cB/c/ ec|BA Bc|BA FA|
dA/d/ fe|cB/c/ ec|BA Bc|d2 d2||

